view/frontend/web/svg/flags/pg.svg

<svg width="24" height="24" viewbox="0 0 20 15" viewBox="0 0 20 15" fill="none" xmlns="http://www.w3.org/2000/svg">
<g clip-path="url(#clip0_270_60824)">
<rect width="20" height="15" fill="white"/>
<rect width="20" height="15" rx="1.25" fill="#E11C1B"/>
<path fill-rule="evenodd" clip-rule="evenodd" d="M0 0L20 15H0V0Z" fill="#1D1D1D"/>
<path fill-rule="evenodd" clip-rule="evenodd" d="M4.42712 11.4178H5.2595L5.65537 10.4845L6.12067 11.4115L6.9735 11.4581L6.24466 12.2514L6.61889 13.2071L5.69247 12.6751L4.83698 13.2118L5.15969 12.2839L4.42712 11.4178Z" fill="#EEEEF6"/>
<path fill-rule="evenodd" clip-rule="evenodd" d="M1.92712 8.91777H2.7595L3.15537 7.98447L3.62067 8.91148L4.4735 8.95813L3.74466 9.75141L4.11889 10.7071L3.19247 10.1751L2.33698 10.7118L2.65969 9.78394L1.92712 8.91777Z" fill="#EEEEF6"/>
<path fill-rule="evenodd" clip-rule="evenodd" d="M4.42712 7.66777H5.2595L5.65537 6.73447L6.12067 7.66148L6.9735 7.70813L6.24466 8.50141L6.61889 9.45708L5.69247 8.9251L4.83698 9.46184L5.15969 8.53394L4.42712 7.66777Z" fill="#EEEEF6"/>
<path fill-rule="evenodd" clip-rule="evenodd" d="M6.06952 10.3526L6.64169 10.3336L6.84823 9.74347L7.08012 10.3304L7.60662 10.3811L7.1325 10.7163L7.51488 11.3099L6.85147 11.0617L6.2765 11.3179L6.58014 10.7326L6.06952 10.3526Z" fill="#EEEEF6"/>
<path fill-rule="evenodd" clip-rule="evenodd" d="M7.31952 9.10262L7.89169 9.0836L8.09823 8.49347L8.33012 9.08045L8.85662 9.13106L8.3825 9.46627L8.76488 10.0599L8.10147 9.81174L7.5265 10.0679L7.83014 9.48259L7.31952 9.10262Z" fill="#EEEEF6"/>
<path fill-rule="evenodd" clip-rule="evenodd" d="M13.1774 1.25C13.1774 1.25 11.2469 1.63512 11.7887 4.31865H11.5133C11.5133 4.31865 11.5359 4.17862 11.2711 4.09652C11.0063 4.01441 11.0593 4.04524 10.9227 4.09652C10.786 4.1478 9.95467 4.09652 9.95467 4.09652V4.19924L10.543 4.45332C10.543 4.45332 10.5285 4.66488 10.7744 4.78211C11.0204 4.89934 11.1989 4.95583 11.1989 4.95583C11.1989 4.95583 11.2353 5.18928 11.0049 5.18928C10.7744 5.18928 9.84749 4.88882 9.51782 5.62702C9.18815 6.36522 8.75 6.90685 8.75 6.90685H9.24432L9.11167 7.07169H9.66828L9.51782 7.15709C9.51782 7.15709 10.2064 7.14944 10.2601 7.07169C10.3138 6.99395 10.2601 7.28246 10.2601 7.28246C10.2601 7.28246 10.9272 6.97784 10.9637 6.90685L11.2751 7.12043L11.3638 6.759L11.6978 6.90685L11.7887 6.56248C11.7887 6.56248 12.7338 8.14299 13.4506 8.05228V7.78997L14.1047 8.05228L14.1877 7.93563C14.1877 7.93563 14.9779 8.25783 15.2211 8.2877L15.0476 7.93563H15.2211L15.0476 7.28246H15.2211L14.8741 6.759L14.9713 6.61727L14.907 6.43101C14.907 6.43101 16.1792 6.83627 16.1218 7.48105C16.0644 8.12583 15.4978 8.38601 15.4978 8.38601C15.4978 8.38601 14.9545 8.55245 14.4638 8.51664C14.4638 8.51664 14.8533 8.97679 15.6776 8.82088C16.5018 8.66496 16.775 7.86575 16.775 7.86575C16.775 7.86575 17.153 8.65077 16.8418 9.06352C16.5307 9.47628 15.1454 9.76607 15.1454 9.76607C15.1454 9.76607 15.6466 10.0599 16.1218 9.98464C16.597 9.90934 17.336 9.49573 17.4793 8.82088C17.6226 8.14602 16.985 6.90074 16.6962 6.759L16.5822 6.32696L16.8418 6.43101L16.3091 5.12822L16.5674 5.18482L15.8137 4.24723L16.0212 4.1833L14.9799 3.43479L15.2915 3.35247C15.2915 3.35247 14.5218 2.96241 13.6438 3.43479L13.6521 3.27159L13.4214 3.3106L13.435 3.13108L13.6644 2.78364L13.3201 2.65099C13.3201 2.65099 13.5984 2.23292 13.5566 2.23866C13.5566 2.23866 13.2465 2.32767 13.2641 2.29037C13.2641 2.29037 13.4205 1.88744 13.3794 1.89823C13.3794 1.89823 13.0197 2.02056 13.0729 1.95934L13.2111 1.71319L13.1774 1.25Z" fill="#FBCD17"/>
</g>
<defs>
<clipPath id="clip0_270_60824">
<rect width="20" height="15" fill="white"/>
</clipPath>
</defs>
</svg>

<svg width="24" height="24" viewbox="0 0 20 15" fill="none" xmlns="http://www.w3.org/2000/svg">
  <mask id="a" maskUnits="userSpaceOnUse" x="0" y="0" width="20" height="15">
    <path fill="#fff" d="M0 0h20v15H0z"/>
  </mask>
  <g mask="url(#a)">
    <rect width="20" height="15" rx="1.25" fill="#E11C1B"/>
    <path fill-rule="evenodd" clip-rule="evenodd" d="M0 0l20 15H0V0z" fill="#1D1D1D"/>
    <path fill-rule="evenodd" clip-rule="evenodd" d="M4.427 11.418h.833l.395-.933.466.927.852.046-.728.793.374.956-.927-.532-.855.537.323-.928-.733-.866zm-2.5-2.5h.833l.395-.934.466.927.852.047-.728.793.374.956-.927-.532-.855.537.323-.928-.733-.866zm2.5-1.25h.833l.395-.934.466.927.852.047-.728.793.374.956-.927-.532-.855.537.323-.928-.733-.866z" fill="#EEEEF6"/>
    <path fill-rule="evenodd" clip-rule="evenodd" d="M6.07 10.353l.572-.02.206-.59.232.587.527.051-.474.335.382.594-.664-.248-.574.256.303-.585-.51-.38zm1.25-1.25l.572-.02.206-.59.232.587.527.051-.474.335.382.594-.664-.248-.575.256.304-.585-.51-.38z" fill="#EEEEF6"/>
    <path fill-rule="evenodd" clip-rule="evenodd" d="M13.177 1.25s-1.93.385-1.388 3.069h-.276s.023-.14-.242-.222c-.265-.083-.212-.052-.348 0-.137.05-.968 0-.968 0v.102l.588.254s-.014.212.231.33c.246.116.425.173.425.173s.036.233-.194.233-1.158-.3-1.487.438a6.455 6.455 0 01-.768 1.28h.494l-.132.165h.556l-.15.085s.688-.008.742-.085c.054-.078 0 .21 0 .21s.667-.304.704-.375l.311.213.089-.361.334.148.09-.345s.946 1.581 1.663 1.49V7.79l.654.262.083-.116s.79.322 1.033.352l-.173-.352h.173l-.173-.654h.173l-.347-.523.097-.142-.064-.186s1.272.405 1.215 1.05c-.058.645-.624.905-.624.905s-.543.166-1.034.13c0 0 .39.46 1.214.305.824-.156 1.097-.955 1.097-.955s.378.785.067 1.198c-.311.412-1.697.702-1.697.702s.502.294.977.219c.475-.076 1.214-.49 1.357-1.164.144-.675-.494-1.92-.783-2.062l-.114-.432.26.104-.533-1.303.258.057-.753-.938.207-.064-1.041-.748.311-.083s-.77-.39-1.647.083l.008-.163-.23.039.013-.18.23-.347-.345-.133s.278-.418.237-.412c0 0-.31.089-.293.051 0 0 .157-.403.115-.392 0 0-.36.123-.306.061l.138-.246-.034-.463z" fill="#FBCD17"/>
  </g>
</svg>
